Papirus-GTK/24x24/apps/mendeley-desktop.svg

<svg height="24" viewBox="0 0 24 24" width="24" xmlns="http://www.w3.org/2000/svg"><rect fill="#be212e" height="20" rx="1.0526316" width="20" x="2" y="2"/><path d="m7.4765625 6.5019491c-.696374.0222-1.3675563.3426607-1.8828125.8300781-.5236476.4953538-.8985795 1.1764942-.9746094 1.9082032-.038016.365882-.00158.740542.1152344 1.0878906.1167958.347402.3139137.666886.5761719.914063.3093073.291517.69554.475094 1.0507812.703124.1776209.114044.3489658.240586.4960938.394532.1471276.153943.2705268.337578.3378906.542968.059934.182748.073634.379297.046875.570313-.026757.191071-.09424.375794-.1933594.539063-.1982363.326591-.5183756.564265-.8691406.691406-.4068411.147452-.8539534.154266-1.2460937.339844-.3103031.146841-.5715873.403458-.734375.714843-.1627857.311385-.227067.677289-.1875 1.029297.04649.413608.235932.805582.5214843 1.097656.2855521.292073.6645292.482046 1.0605469.544922.5807138.09218 1.2009076-.100739 1.6230469-.52539.2110694-.212325.3730117-.476947.4628906-.767578.089879-.290687.1072242-.607019.048828-.90625-.0445969-.228477-.1315641-.444844-.2128905-.66211-.081325-.21732-.158128-.439626-.1777344-.671875-.034619-.410057.1168854-.826098.3789063-1.134765.2620225-.308667.6271704-.51177 1.0136719-.601563.2493712-.05794.509868-.07224.7617187-.02734.2518518.04496.495148.148767.6992185.308594.204071.159827.368383.376658.458985.625.0906.248343.105449.528424.0332.783203-.07399.260941-.233413.48484-.394532.699219-.161115.214376-.3280851.428471-.4238276.681641-.1055851.279196-.1172609.594301-.044922.884765.072339.290408.2255496.557395.4257816.773438.221513.23902.501562.417732.80664.515625.305078.09795.618211.115234.9375.115234.319292 0 .651953-.01728.957032-.115234.305078-.0979.585127-.276605.80664-.515625.200232-.216043.353442-.483029.425782-.773438.07234-.290463.06067-.605568-.04492-.884765-.09575-.253171-.262711-.467261-.423828-.681641-.161119-.214379-.320539-.438278-.394532-.699219-.07224-.254779-.0574-.53486.0332-.783203.0906-.248342.254915-.465173.458985-.625.204072-.159827.447367-.263642.699218-.308594.251852-.04489.512348-.03059.761719.02734.386502.08979.751651.292896 1.013672.601563.262021.308666.413525.724709.378906 1.134765-.01961.232249-.09641.454554-.177734.671875-.08132.217268-.168295.433635-.212891.66211-.0584.299233-.04105.615564.04883.90625.08988.29063.251822.555253.462891.767578.42214.424653 1.042333.617568 1.623047.52539.396017-.06288.774994-.252849 1.060547-.544922.285552-.292074.474993-.684048.521484-1.097656.03957-.352008-.02471-.717912-.1875-1.029297-.162788-.311385-.424071-.568002-.734375-.714843-.39214-.185578-.839253-.192392-1.246094-.339844-.350764-.127141-.670903-.364816-.86914-.691406-.09912-.163269-.166599-.347993-.19336-.539063-.02676-.191016-.01307-.387566.04688-.570313.06736-.205389.190762-.389025.33789-.542968.147127-.153946.318474-.280488.496094-.394532.355242-.22803.741473-.411605 1.050781-.703124.262258-.247178.459376-.566661.576172-.914063.116787-.3473505.153246-.7220086.115232-1.0878906-.076024-.731709-.450962-1.4128494-.974609-1.9082032-.515256-.4874175-1.186439-.8078792-1.882812-.8300781-.348187-.0111-.700528.050672-1.021485.1914063-.320956.1407365-.610003.3596397-.832031.6386718-.254537.3198763-.414051.7095646-.560547 1.0957032-.146496.3861931-.285988.7798174-.507813 1.125-.365803.5692176-.943003 1.1093746-1.601562 1.1093746-.65856 0-1.235759-.540157-1.601562-1.1093746-.221826-.3451826-.361317-.7388069-.507813-1.125-.146496-.3861386-.3060087-.775827-.5605469-1.0957032-.2220273-.2790321-.5110749-.4979353-.8320312-.6386718-.3209569-.1407371-.6732976-.2025052-1.0214844-.1914063zm4.5234375 4.9980469a1.0000089 1.0000087 0 0 1 1 1 1.0000089 1.0000087 0 0 1 -1 1 1.0000089 1.0000087 0 0 1 -1-1 1.0000089 1.0000087 0 0 1  1-1z" opacity=".2"/><path d="m7.4765625 6.0019531c-.696374.0222-1.3675563.3426607-1.8828125.8300781-.5236476.4953538-.8985795 1.1764942-.9746094 1.9082032-.038016.365882-.0015833.740542.1152344 1.0878906.1167958.347402.3139137.666886.5761719.914063.3093073.291517.69554.475094 1.0507812.703124.1776209.114044.3489658.240586.4960938.394532.1471276.153943.2705268.337578.3378906.542968.059934.182748.073634.379297.046875.570313-.026757.191071-.0942396.375794-.1933594.539063-.1982363.326591-.5183756.564265-.8691406.691406-.4068411.147452-.8539534.154266-1.2460937.339844-.3103031.146841-.5715873.403458-.734375.714843-.1627857.311385-.227067.677289-.1875 1.029297.04649.413608.235932.805582.5214843 1.097656.2855521.292073.6645292.482046 1.0605469.544922.5807138.09218 1.2009076-.100739 1.6230469-.52539.2110694-.212325.3730117-.476947.4628906-.767578.089879-.290687.1072242-.607019.0488281-.90625-.044597-.228477-.1315642-.444844-.2128906-.66211-.081325-.21732-.158128-.439626-.1777344-.671875-.034619-.410057.1168854-.826098.3789063-1.134765.2620225-.308667.6271704-.51177 1.0136719-.601563.2493712-.05794.509868-.072244.7617187-.027344.2518518.04496.495148.148767.6992185.308594.204071.159827.368383.376658.458985.625.0906.248343.105449.528424.033203.783203-.07399.260941-.233413.48484-.394532.699219-.161115.214376-.3280851.428471-.4238276.681641-.1055851.279196-.1172609.594301-.0449219.884765.072339.290408.2255495.557395.4257815.773438.221513.23902.501562.417732.80664.515625.305078.097955.618211.115234.9375.115234.319292 0 .651953-.01728.957032-.115234.305078-.0979.585127-.276605.80664-.515625.200232-.216043.353442-.483029.425782-.773438.07234-.290463.060668-.605568-.044922-.884765-.09575-.253171-.262711-.467261-.423828-.681641-.161119-.214379-.320539-.438278-.394532-.699219-.07224-.254779-.057397-.53486.033203-.783203.0906-.248342.254915-.465173.458985-.625.204072-.159827.447367-.263642.699218-.308594.251852-.04489.512348-.030586.761719.027344.386502.08979.751651.292896 1.013672.601563.262021.308666.413525.724709.378906 1.134765-.01961.232249-.096414.454554-.177734.671875-.08132.217268-.168295.433635-.212891.66211-.0584.299233-.041051.615564.048828.90625.089881.29063.251822.555253.462891.767578.42214.424653 1.042333.617568 1.623047.52539.396017-.06288.774994-.252849 1.060547-.544922.285552-.292074.474993-.684048.521484-1.097656.03957-.352008-.024711-.717912-.1875-1.029297-.162788-.311385-.424071-.568002-.734375-.714843-.39214-.185578-.839253-.192392-1.246094-.339844-.350764-.127141-.670903-.364816-.86914-.691406-.09912-.163269-.166599-.347993-.19336-.539063-.026759-.191016-.013065-.387566.046876-.570313.06736-.205389.190762-.389025.33789-.542968.147127-.153946.318474-.280488.496094-.394532.355242-.22803.741473-.411605 1.050781-.703124.262258-.247178.459376-.566661.576172-.914063.116789-.3473505.153248-.7220086.115234-1.0878906-.076024-.731709-.450962-1.4128494-.974609-1.9082032-.515256-.4874175-1.186439-.8078792-1.882812-.8300781-.348187-.0111-.700528.050672-1.021485.1914063-.320956.1407365-.610003.3596397-.832031.6386718-.254537.3198763-.414051.7095646-.560547 1.0957032-.146496.3861931-.285988.7798174-.507813 1.125-.365803.5692181-.943003 1.1093746-1.601562 1.1093746-.65856 0-1.235759-.5401565-1.601562-1.1093746-.221826-.3451826-.361317-.7388069-.507813-1.125-.146496-.3861386-.3060087-.775827-.5605469-1.0957032-.2220273-.2790321-.5110749-.4979353-.8320312-.6386718-.3209569-.1407371-.6732976-.2025052-1.0214844-.1914063zm4.5234375 4.9980469a1.0000089 1.0000087 0 0 1 1 1 1.0000089 1.0000087 0 0 1 -1 1 1.0000089 1.0000087 0 0 1 -1-1 1.0000089 1.0000087 0 0 1  1-1z" fill="#fff"/><path d="m3.0527344 2c-.5831579 0-1.0527344.4695765-1.0527344 1.0527344v.5c0-.5831579.4695765-1.0527344 1.0527344-1.0527344h17.8945306c.583159 0 1.052735.4695765 1.052735 1.0527344v-.5c0-.5831579-.469576-1.0527344-1.052735-1.0527344z" fill="#fff" opacity=".2"/><path d="m2 20.447265v.5c0 .583159.4695765 1.052735 1.0527344 1.052735h17.8945306c.583159 0 1.052735-.469576 1.052735-1.052735v-.5c0 .583159-.469576 1.052735-1.052735 1.052735h-17.8945306c-.5831579 0-1.0527344-.469576-1.0527344-1.052735z" opacity=".3"/></svg>

<?xml version="1.0" encoding="UTF-8" standalone="no"?>
<svg
   xmlns:dc="http://purl.org/dc/elements/1.1/"
   xmlns:cc="http://creativecommons.org/ns#"
   xmlns:rdf="http://www.w3.org/1999/02/22-rdf-syntax-ns#"
   xmlns:svg="http://www.w3.org/2000/svg"
   xmlns="http://www.w3.org/2000/svg"
   xmlns:sodipodi="http://sodipodi.sourceforge.net/DTD/sodipodi-0.dtd"
   xmlns:inkscape="http://www.inkscape.org/namespaces/inkscape"
   version="1.1"
   id="svg4261"
   viewBox="0 0 24 24"
   height="24"
   width="24"
   inkscape:version="0.91 r13725"
   sodipodi:docname="mendeley-desktop.svg">
  <sodipodi:namedview
     pagecolor="#ffffff"
     bordercolor="#666666"
     borderopacity="1"
     objecttolerance="10"
     gridtolerance="10"
     guidetolerance="10"
     inkscape:pageopacity="0"
     inkscape:pageshadow="2"
     inkscape:window-width="1600"
     inkscape:window-height="849"
     id="namedview13"
     showgrid="false"
     inkscape:zoom="11.42"
     inkscape:cx="24"
     inkscape:cy="15.465149"
     inkscape:window-x="0"
     inkscape:window-y="0"
     inkscape:window-maximized="1"
     inkscape:current-layer="svg4261" />
  <defs
     id="defs4263" />
  <metadata
     id="metadata4266">
    <rdf:RDF>
      <cc:Work
         rdf:about="">
        <dc:format>image/svg+xml</dc:format>
        <dc:type
           rdf:resource="http://purl.org/dc/dcmitype/StillImage" />
        <dc:title></dc:title>
      </cc:Work>
    </rdf:RDF>
  </metadata>
  <g
     id="g4232">
    <rect
       rx="1.0526316"
       y="2"
       x="2"
       height="20"
       width="20"
       id="rect5010"
       style="opacity:1;fill:#be212e;fill-opacity:1;stroke:none;stroke-width:0.1;stroke-miterlimit:4;stroke-dasharray:none;stroke-opacity:1" />
    <path
       inkscape:connector-curvature="0"
       style="opacity:0.2;fill:#000000;fill-opacity:1;stroke:none;stroke-width:0.07407407;stroke-miterlimit:4;stroke-dasharray:none;stroke-opacity:1"
       d="M 7.4765625,6.5019491 C 6.7801885,6.5241491 6.1090062,6.8446098 5.59375,7.3320272 5.0701024,7.827381 4.6951705,8.5085214 4.6191406,9.2402304 c -0.038016,0.365882 -0.00158,0.740542 0.1152344,1.0878906 0.1167958,0.347402 0.3139137,0.666886 0.5761719,0.914063 0.3093073,0.291517 0.69554,0.475094 1.0507812,0.703124 0.1776209,0.114044 0.3489658,0.240586 0.4960938,0.394532 0.1471276,0.153943 0.2705268,0.337578 0.3378906,0.542968 0.059934,0.182748 0.073634,0.379297 0.046875,0.570313 -0.026757,0.191071 -0.09424,0.375794 -0.1933594,0.539063 -0.1982363,0.326591 -0.5183756,0.564265 -0.8691406,0.691406 -0.4068411,0.147452 -0.8539534,0.154266 -1.2460937,0.339844 -0.3103031,0.146841 -0.5715873,0.403458 -0.734375,0.714843 -0.1627857,0.311385 -0.227067,0.677289 -0.1875,1.029297 0.04649,0.413608 0.235932,0.805582 0.5214843,1.097656 0.2855521,0.292073 0.6645292,0.482046 1.0605469,0.544922 0.5807138,0.09218 1.2009076,-0.100739 1.6230469,-0.52539 0.2110694,-0.212325 0.3730117,-0.476947 0.4628906,-0.767578 0.089879,-0.290687 0.1072242,-0.607019 0.048828,-0.90625 C 7.6839186,15.982457 7.5969514,15.76609 7.515625,15.548824 7.4343,15.331504 7.357497,15.109198 7.3378906,14.876949 7.3032716,14.466892 7.454776,14.050851 7.7167969,13.742184 c 0.2620225,-0.308667 0.6271704,-0.51177 1.0136719,-0.601563 0.2493712,-0.05794 0.509868,-0.07224 0.7617187,-0.02734 0.2518518,0.04496 0.495148,0.148767 0.6992185,0.308594 0.204071,0.159827 0.368383,0.376658 0.458985,0.625 0.0906,0.248343 0.105449,0.528424 0.0332,0.783203 -0.07399,0.260941 -0.233413,0.48484 -0.394532,0.699219 -0.161115,0.214376 -0.3280851,0.428471 -0.4238276,0.681641 -0.1055851,0.279196 -0.1172609,0.594301 -0.044922,0.884765 0.072339,0.290408 0.2255496,0.557395 0.4257816,0.773438 0.221513,0.23902 0.501562,0.417732 0.80664,0.515625 0.305078,0.09795 0.618211,0.115234 0.9375,0.115234 0.319292,0 0.651953,-0.01728 0.957032,-0.115234 0.305078,-0.0979 0.585127,-0.276605 0.80664,-0.515625 0.200232,-0.216043 0.353442,-0.483029 0.425782,-0.773438 0.07234,-0.290463 0.06067,-0.605568 -0.04492,-0.884765 -0.09575,-0.253171 -0.262711,-0.467261 -0.423828,-0.681641 -0.161119,-0.214379 -0.320539,-0.438278 -0.394532,-0.699219 -0.07224,-0.254779 -0.0574,-0.53486 0.0332,-0.783203 0.0906,-0.248342 0.254915,-0.465173 0.458985,-0.625 0.204072,-0.159827 0.447367,-0.263642 0.699218,-0.308594 0.251852,-0.04489 0.512348,-0.03059 0.761719,0.02734 0.386502,0.08979 0.751651,0.292896 1.013672,0.601563 0.262021,0.308666 0.413525,0.724709 0.378906,1.134765 -0.01961,0.232249 -0.09641,0.454554 -0.177734,0.671875 -0.08132,0.217268 -0.168295,0.433635 -0.212891,0.66211 -0.0584,0.299233 -0.04105,0.615564 0.04883,0.90625 0.08988,0.29063 0.251822,0.555253 0.462891,0.767578 0.42214,0.424653 1.042333,0.617568 1.623047,0.52539 0.396017,-0.06288 0.774994,-0.252849 1.060547,-0.544922 0.285552,-0.292074 0.474993,-0.684048 0.521484,-1.097656 0.03957,-0.352008 -0.02471,-0.717912 -0.1875,-1.029297 -0.162788,-0.311385 -0.424071,-0.568002 -0.734375,-0.714843 -0.39214,-0.185578 -0.839253,-0.192392 -1.246094,-0.339844 -0.350764,-0.127141 -0.670903,-0.364816 -0.86914,-0.691406 -0.09912,-0.163269 -0.166599,-0.347993 -0.19336,-0.539063 -0.02676,-0.191016 -0.01307,-0.387566 0.04688,-0.570313 0.06736,-0.205389 0.190762,-0.389025 0.33789,-0.542968 0.147127,-0.153946 0.318474,-0.280488 0.496094,-0.394532 0.355242,-0.22803 0.741473,-0.411605 1.050781,-0.703124 0.262258,-0.247178 0.459376,-0.566661 0.576172,-0.914063 C 19.382414,9.9807705 19.418873,9.6061124 19.380859,9.2402304 19.304835,8.5085214 18.929897,7.827381 18.40625,7.3320272 17.890994,6.8446097 17.219811,6.524148 16.523438,6.5019491 c -0.348187,-0.0111 -0.700528,0.050672 -1.021485,0.1914063 -0.320956,0.1407365 -0.610003,0.3596397 -0.832031,0.6386718 -0.254537,0.3198763 -0.414051,0.7095646 -0.560547,1.0957032 -0.146496,0.3861931 -0.285988,0.7798174 -0.507813,1.125 C 13.235759,10.121948 12.658559,10.662105 12,10.662105 c -0.65856,0 -1.235759,-0.540157 -1.601562,-1.1093746 C 10.176612,9.2075478 10.037121,8.8139235 9.890625,8.4277304 9.744129,8.0415918 9.5846163,7.6519034 9.3300781,7.3320272 9.1080508,7.0529951 8.8190032,6.8340919 8.4980469,6.6933554 8.17709,6.5526183 7.8247493,6.4908502 7.4765625,6.5019491 Z M 12,11.499996 a 1.0000089,1.0000087 0 0 1 1,1 1.0000089,1.0000087 0 0 1 -1,1 1.0000089,1.0000087 0 0 1 -1,-1 1.0000089,1.0000087 0 0 1 1,-1 z"
       id="path4230" />
    <path
       id="path4227"
       d="M 7.4765625 6.0019531 C 6.7801885 6.0241531 6.1090062 6.3446138 5.59375 6.8320312 C 5.0701024 7.327385 4.6951705 8.0085254 4.6191406 8.7402344 C 4.5811246 9.1061164 4.6175573 9.4807764 4.734375 9.828125 C 4.8511708 10.175527 5.0482887 10.495011 5.3105469 10.742188 C 5.6198542 11.033705 6.0060869 11.217282 6.3613281 11.445312 C 6.538949 11.559356 6.7102939 11.685898 6.8574219 11.839844 C 7.0045495 11.993787 7.1279487 12.177422 7.1953125 12.382812 C 7.2552465 12.56556 7.2689465 12.762109 7.2421875 12.953125 C 7.2154305 13.144196 7.1479479 13.328919 7.0488281 13.492188 C 6.8505918 13.818779 6.5304525 14.056453 6.1796875 14.183594 C 5.7728464 14.331046 5.3257341 14.33786 4.9335938 14.523438 C 4.6232907 14.670279 4.3620065 14.926896 4.1992188 15.238281 C 4.0364331 15.549666 3.9721518 15.91557 4.0117188 16.267578 C 4.0582088 16.681186 4.2476508 17.07316 4.5332031 17.365234 C 4.8187552 17.657307 5.1977323 17.84728 5.59375 17.910156 C 6.1744638 18.002336 6.7946576 17.809417 7.2167969 17.384766 C 7.4278663 17.172441 7.5898086 16.907819 7.6796875 16.617188 C 7.7695665 16.326501 7.7869117 16.010169 7.7285156 15.710938 C 7.6839186 15.482461 7.5969514 15.266094 7.515625 15.048828 C 7.4343 14.831508 7.357497 14.609202 7.3378906 14.376953 C 7.3032716 13.966896 7.454776 13.550855 7.7167969 13.242188 C 7.9788194 12.933521 8.3439673 12.730418 8.7304688 12.640625 C 8.97984 12.582685 9.2403368 12.568381 9.4921875 12.613281 C 9.7440393 12.658241 9.9873355 12.762048 10.191406 12.921875 C 10.395477 13.081702 10.559789 13.298533 10.650391 13.546875 C 10.740991 13.795218 10.75584 14.075299 10.683594 14.330078 C 10.609604 14.591019 10.450181 14.814918 10.289062 15.029297 C 10.127947 15.243673 9.9609769 15.457768 9.8652344 15.710938 C 9.7596493 15.990134 9.7479735 16.305239 9.8203125 16.595703 C 9.8926515 16.886111 10.045862 17.153098 10.246094 17.369141 C 10.467607 17.608161 10.747656 17.786873 11.052734 17.884766 C 11.357812 17.982721 11.670945 18 11.990234 18 C 12.309526 18 12.642187 17.98272 12.947266 17.884766 C 13.252344 17.786866 13.532393 17.608161 13.753906 17.369141 C 13.954138 17.153098 14.107348 16.886112 14.179688 16.595703 C 14.252028 16.30524 14.240356 15.990135 14.134766 15.710938 C 14.039016 15.457767 13.872055 15.243677 13.710938 15.029297 C 13.549819 14.814918 13.390399 14.591019 13.316406 14.330078 C 13.244166 14.075299 13.259009 13.795218 13.349609 13.546875 C 13.440209 13.298533 13.604524 13.081702 13.808594 12.921875 C 14.012666 12.762048 14.255961 12.658233 14.507812 12.613281 C 14.759664 12.568391 15.02016 12.582695 15.269531 12.640625 C 15.656033 12.730415 16.021182 12.933521 16.283203 13.242188 C 16.545224 13.550854 16.696728 13.966897 16.662109 14.376953 C 16.642499 14.609202 16.565695 14.831507 16.484375 15.048828 C 16.403055 15.266096 16.31608 15.482463 16.271484 15.710938 C 16.213084 16.010171 16.230433 16.326502 16.320312 16.617188 C 16.410193 16.907818 16.572134 17.172441 16.783203 17.384766 C 17.205343 17.809419 17.825536 18.002334 18.40625 17.910156 C 18.802267 17.847276 19.181244 17.657307 19.466797 17.365234 C 19.752349 17.07316 19.94179 16.681186 19.988281 16.267578 C 20.027851 15.91557 19.96357 15.549666 19.800781 15.238281 C 19.637993 14.926896 19.37671 14.670279 19.066406 14.523438 C 18.674266 14.33786 18.227153 14.331046 17.820312 14.183594 C 17.469548 14.056453 17.149409 13.818778 16.951172 13.492188 C 16.852052 13.328919 16.784573 13.144195 16.757812 12.953125 C 16.731053 12.762109 16.744747 12.565559 16.804688 12.382812 C 16.872048 12.177423 16.99545 11.993787 17.142578 11.839844 C 17.289705 11.685898 17.461052 11.559356 17.638672 11.445312 C 17.993914 11.217282 18.380145 11.033707 18.689453 10.742188 C 18.951711 10.49501 19.148829 10.175527 19.265625 9.828125 C 19.382414 9.4807745 19.418873 9.1061164 19.380859 8.7402344 C 19.304835 8.0085254 18.929897 7.327385 18.40625 6.8320312 C 17.890994 6.3446137 17.219811 6.024152 16.523438 6.0019531 C 16.175251 5.9908531 15.82291 6.0526251 15.501953 6.1933594 C 15.180997 6.3340959 14.89195 6.5529991 14.669922 6.8320312 C 14.415385 7.1519075 14.255871 7.5415958 14.109375 7.9277344 C 13.962879 8.3139275 13.823387 8.7075518 13.601562 9.0527344 C 13.235759 9.6219525 12.658559 10.162109 12 10.162109 C 11.34144 10.162109 10.764241 9.6219525 10.398438 9.0527344 C 10.176612 8.7075518 10.037121 8.3139275 9.890625 7.9277344 C 9.744129 7.5415958 9.5846163 7.1519074 9.3300781 6.8320312 C 9.1080508 6.5529991 8.8190032 6.3340959 8.4980469 6.1933594 C 8.17709 6.0526223 7.8247493 5.9908542 7.4765625 6.0019531 z M 12 11 A 1.0000089 1.0000087 0 0 1 13 12 A 1.0000089 1.0000087 0 0 1 12 13 A 1.0000089 1.0000087 0 0 1 11 12 A 1.0000089 1.0000087 0 0 1 12 11 z "
       style="opacity:1;fill:#ffffff;fill-opacity:1;stroke:none;stroke-width:0.07407407;stroke-miterlimit:4;stroke-dasharray:none;stroke-opacity:1" />
    <path
       id="rect4184"
       d="M 3.0527344,2 C 2.4695765,2 2,2.4695765 2,3.0527344 l 0,0.5 C 2,2.9695765 2.4695765,2.5 3.0527344,2.5 l 17.8945306,0 C 21.530424,2.5 22,2.9695765 22,3.5527344 l 0,-0.5 C 22,2.4695765 21.530424,2 20.947265,2 L 3.0527344,2 Z"
       style="opacity:0.2;fill:#ffffff;fill-opacity:1;stroke:none;stroke-width:0.1;stroke-miterlimit:4;stroke-dasharray:none;stroke-opacity:1"
       inkscape:connector-curvature="0" />
    <path
       id="rect4189"
       d="m 2,20.447265 0,0.5 C 2,21.530424 2.4695765,22 3.0527344,22 L 20.947265,22 C 21.530424,22 22,21.530424 22,20.947265 l 0,-0.5 C 22,21.030424 21.530424,21.5 20.947265,21.5 l -17.8945306,0 C 2.4695765,21.5 2,21.030424 2,20.447265 Z"
       style="opacity:0.3;fill:#000000;fill-opacity:1;stroke:none;stroke-width:0.1;stroke-miterlimit:4;stroke-dasharray:none;stroke-opacity:1"
       inkscape:connector-curvature="0" />
  </g>
</svg>
